X:1028
M:C
L:1/8
Q:1/4=120
K:D
g| f>ed>B A>Bd>e|f<ad>f  e2      e>g   |f>ed>B A>gf>e|d<BA>F  D2D:|
g|Tf2 d>f e<Ac>A|d>fB>e  c2      A=c   |B2 G>B A>dF>A|G>BE>A TF2D:|

